X:0725
T:Miss Wardlaw's Reel.
M:C
L:1/8
Q:1/2=104
I: :: :|
Z:Jack Campin * www.campin.me.uk * 2009
K:G
D|G2BG  BgdB|G2BG FAFD|G2BG  BgdB|cAFA G2G:|
f|g2d=f ecAc|BdFA GFED|g2d=f ecAc|BdDf G2G
f|g2d=f ecAc|BdFA GFED|ced=f ecAc|BdFA G2G|]

